icons/projector-2-line.svg

<svg xmlns="http://www.w3.org/2000/svg" width="24" height="24" fill="none"><g clip-path="url(#a)"><g><path fill="#121212" d="M22 19V21H20V19H4V21H2V19C1.73478 19 1.48043 18.8946 1.29289 18.7071C1.10536 18.5196 1 18.2652 1 18V6C1 5.73479 1.10536 5.48043 1.29289 5.2929C1.48043 5.10536 1.73478 5 2 5H12.528C13.0902 4.37006 13.7793 3.86619 14.55 3.5215C15.3207 3.1768 16.1557 2.99908 17 3C18.777 3 20.374 3.773 21.472 5H22C22.2652 5 22.5196 5.10536 22.7071 5.2929C22.8946 5.48043 23 5.73479 23 6V18C23 18.2652 22.8946 18.5196 22.7071 18.7071C22.5196 18.8946 22.2652 19 22 19ZM11.341 7H3V17H21V13.472C20.0071 14.3613 18.7464 14.8946 17.4168 14.9879C16.0872 15.0812 14.7644 14.7291 13.6571 13.9871C12.5498 13.2452 11.721 12.1557 11.3017 10.8905C10.8823 9.62527 10.8961 8.25646 11.341 7ZM17 13C18.0609 13 19.0783 12.5786 19.8284 11.8284C20.5786 11.0783 21 10.0609 21 9C21 7.93914 20.5786 6.92172 19.8284 6.17158C19.0783 5.42143 18.0609 5 17 5C15.9391 5 14.9217 5.42143 14.1716 6.17158C13.4214 6.92172 13 7.93914 13 9C13 10.0609 13.4214 11.0783 14.1716 11.8284C14.9217 12.5786 15.9391 13 17 13ZM5 13H7V15H5V13ZM8 13H10V15H8V13Z"/></g></g><defs><clipPath id="a"><rect width="24" height="24" fill="white"/></clipPath></defs></svg>

<svg width="24" height="24" fill="none" xmlns="http://www.w3.org/2000/svg"><g clip-path="url(#a)"><path d="M22 19v2h-2v-2H4v2H2v-2a1 1 0 0 1-1-1V6a1 1 0 0 1 1-1h10.528A5.986 5.986 0 0 1 17 3c1.777 0 3.374.773 4.472 2H22a1 1 0 0 1 1 1v12a1 1 0 0 1-1 1ZM11.341 7H3v10h18v-3.528A6 6 0 0 1 11.341 7ZM17 13a4 4 0 1 0 0-8 4 4 0 0 0 0 8ZM5 13h2v2H5v-2Zm3 0h2v2H8v-2Z" /></g><defs><clipPath id="a"><path fill="#fff" d="M0 0h24v24H0z"/></clipPath></defs></svg>
